svg/300/rounded/arrow_drop_down_circle.svg

<svg xmlns="http://www.w3.org/2000/svg" width="48" height="48" viewBox="0 -960 960 960"><path d="M469.385-385.847q4.475 4.616 10.545 4.616t10.685-4.616l96.645-96.26q6.124-6.508 2.492-15.816-3.631-9.307-13.215-9.307H382.282q-9.05 0-12.358 9.307-3.308 9.308 3.201 15.816l96.26 96.26Zm10.682 285.846q-78.221 0-147.397-29.92-69.176-29.92-120.989-81.71-51.814-51.791-81.747-120.936-29.933-69.146-29.933-147.366 0-78.836 29.92-148.204 29.92-69.369 81.71-120.682 51.791-51.314 120.936-81.247 69.146-29.933 147.366-29.933 78.836 0 148.204 29.92 69.369 29.92 120.682 81.21 51.314 51.291 81.247 120.629 29.933 69.337 29.933 148.173 0 78.221-29.92 147.397-29.92 69.176-81.21 120.989-51.291 51.814-120.629 81.747-69.337 29.933-148.173 29.933ZM480-145.385q139.692 0 237.154-97.769Q814.615-340.923 814.615-480q0-139.692-97.461-237.154Q619.692-814.615 480-814.615q-139.077 0-236.846 97.461Q145.385-619.692 145.385-480q0 139.077 97.769 236.846T480-145.385ZM480-480Z"/></svg>

<svg xmlns="http://www.w3.org/2000/svg" width="48" height="48" viewBox="0 -960 960 960"><path d="M469.38-385.85q4.48 4.62 10.55 4.62t10.69-4.62l96.64-96.26q6.12-6.5 2.49-15.81t-13.21-9.31H382.28q-9.05 0-12.36 9.31-3.3 9.31 3.2 15.81l96.26 96.26ZM480.07-100q-78.22 0-147.4-29.92t-120.99-81.71q-51.81-51.79-81.75-120.94Q100-401.71 100-479.93q0-78.84 29.92-148.21t81.71-120.68q51.79-51.31 120.94-81.25Q401.71-860 479.93-860q78.84 0 148.21 29.92t120.68 81.21q51.31 51.29 81.25 120.63Q860-558.9 860-480.07q0 78.22-29.92 147.4t-81.21 120.99q-51.29 51.81-120.63 81.75Q558.9-100 480.07-100Zm-.07-45.39q139.69 0 237.15-97.76 97.46-97.77 97.46-236.85 0-139.69-97.46-237.15-97.46-97.46-237.15-97.46-139.08 0-236.85 97.46-97.76 97.46-97.76 237.15 0 139.08 97.76 236.85 97.77 97.76 236.85 97.76ZM480-480Z"/></svg>
